client/public/static/images/ic/ic_accelerate.svg

<svg fill="none" height="48" viewBox="0 0 57 48" width="57" xmlns="http://www.w3.org/2000/svg" xmlns:xlink="http://www.w3.org/1999/xlink"><linearGradient id="a" gradientUnits="userSpaceOnUse" x1=".366519" x2="54.6662" y1="10.0251" y2="16.1738"><stop offset="0" stop-color="#938eff"/><stop offset="1" stop-color="#b0acfb"/></linearGradient><clipPath id="b"><path d="m.171387 0h56v48h-56z"/></clipPath><clipPath id="c"><path d="m0 0h32v32h-32z" transform="matrix(.9961947 .08715574 -.08715574 .9961947 15.6268 .661621)"/></clipPath><clipPath id="d"><path d="m0 0h32.0231v32.0231h-32.0231z" transform="matrix(.9961947 .08715574 -.08715574 .9961947 15.6268 .661621)"/></clipPath><g clip-path="url(#b)"><rect fill="url(#a)" height="34.2793" opacity=".4" rx="5" transform="matrix(.999773 -.102905 .0983729 .986376 .171387 14.1875)" width="52.7787"/><path d="m19.1296 24.4019-8.1789 5.767" stroke="#1a202c" stroke-linecap="round" stroke-width="2"/><path d="m17.1321 20.4019-4.9607 3.5981" stroke="#1a202c" stroke-linecap="round" stroke-width="2"/><g clip-path="url(#c)"><g clip-path="url(#d)" stroke="#1a202c" stroke-linecap="round" stroke-linejoin="round" stroke-width="3.33369"><path d="m45.2151 5.39343-8.527 25.74647-7.8183-6.2614-4.696 5.8637.7869-8.9943-7.8183-6.2614z" fill="#fff"/><path d="m28.8698 24.8785 5.3169-8.1798-9.226 5.0491"/></g></g></g></svg>

<svg width="57" height="48" viewBox="0 0 57 48" fill="none" xmlns="http://www.w3.org/2000/svg">
<g clip-path="url(#clip0)">
<rect opacity="0.4" width="52.7787" height="34.2793" rx="5" transform="matrix(0.999773 -0.102905 0.0983729 0.986376 0.171387 14.1875)" fill="url(#paint0_linear)"/>
<path d="M19.1296 24.4019L10.9507 30.1689" stroke="#1A202C" stroke-width="2" stroke-linecap="round"/>
<path d="M17.1321 20.4019L12.1714 24" stroke="#1A202C" stroke-width="2" stroke-linecap="round"/>
<g clip-path="url(#clip1)">
<g clip-path="url(#clip2)">
<path d="M45.2151 5.39343L36.6881 31.1399L28.8698 24.8785L24.1738 30.7422L24.9607 21.7479L17.1424 15.4865L45.2151 5.39343Z" fill="white" stroke="#1A202C" stroke-width="3.33369" stroke-linecap="round" stroke-linejoin="round"/>
<path d="M28.8698 24.8785L34.1867 16.6987L24.9607 21.7478" stroke="#1A202C" stroke-width="3.33369" stroke-linecap="round" stroke-linejoin="round"/>
</g>
</g>
</g>
<defs>
<linearGradient id="paint0_linear" x1="0.366519" y1="10.0251" x2="54.6662" y2="16.1738" gradientUnits="userSpaceOnUse">
<stop stop-color="#938EFF"/>
<stop offset="1" stop-color="#B0ACFB"/>
</linearGradient>
<clipPath id="clip0">
<rect width="56" height="48" fill="white" transform="translate(0.171387)"/>
</clipPath>
<clipPath id="clip1">
<rect width="32" height="32" fill="white" transform="translate(15.6268 0.661621) rotate(5)"/>
</clipPath>
<clipPath id="clip2">
<rect width="32.0231" height="32.0231" fill="white" transform="translate(15.6268 0.661621) rotate(5)"/>
</clipPath>
</defs>
</svg>
